packages/dnb-ui-lib/assets/icons/savings_account_medium.svg

<svg width="24" height="24" viewBox="0 0 24 24" fill="none" xmlns="http://www.w3.org/2000/svg">
<path d="M12 2.25C12 1.4215 12.6715 0.75 13.5 0.75C14.3285 0.75 15 1.4215 15 2.25M10.5 8.25H15.75M3.73739 7.0125C3.48068 6.45208 3.75631 5.78698 4.33006 5.5849C4.80767 5.41667 5.32313 5.32031 5.84267 5.32031C6.57494 5.32031 7.27091 5.49531 7.87841 5.8026C9.42989 4.97813 11.5582 4.5 13.5341 4.5C19.0584 4.5 23.25 8.33177 23.25 12.9375C23.25 14.8833 22.4507 16.5823 21.111 17.9943C21.0169 18.0932 20.9417 18.2099 20.8926 18.338L19.6019 22.5833C19.4501 22.9849 19.0706 23.25 18.6477 23.25H16.2459C15.757 23.25 15.3361 22.8974 15.242 22.4083L15.0682 21.0925C14.9746 20.6034 14.5537 20.2503 14.0644 20.2503H12.3048C11.8159 20.2503 11.3951 20.6034 11.301 21.0925L11.1834 22.4083C11.0898 22.8974 10.6689 23.25 10.1795 23.25H7.86153C7.41511 23.25 7.02085 22.9552 6.88636 22.5219L6.00886 19.2385C5.90966 18.9177 5.66676 18.6661 5.35227 18.5625C4.08153 18.1443 0.75 16.5234 0.75 14.6094V12.712C0.75 11.4677 1.70114 10.4396 2.93352 10.2786C3.17386 10.2469 3.39017 10.1141 3.54716 9.92552L4.1071 9.25052C4.36432 8.94062 4.42108 8.50625 4.25284 8.13854L3.73739 7.0125Z" stroke="black" stroke-width="1.5" stroke-linecap="round" stroke-linejoin="round"/>
</svg>

<svg width="24" height="24" viewBox="0 0 24 24" fill="none" xmlns="http://www.w3.org/2000/svg"><path d="M12 2.25a1.5 1.5 0 113 0m-4.5 6h5.25M3.737 7.013a1.05 1.05 0 01.593-1.428 4.511 4.511 0 013.548.218C9.43 4.978 11.558 4.5 13.534 4.5c5.524 0 9.716 3.832 9.716 8.438 0 1.945-.8 3.644-2.139 5.056a1.04 1.04 0 00-.218.344l-1.291 4.245a1.023 1.023 0 01-.954.667h-2.402c-.489 0-.91-.353-1.004-.842l-.174-1.316a1.028 1.028 0 00-1.004-.842h-1.76c-.488 0-.909.353-1.003.843l-.118 1.315c-.093.49-.514.842-1.003.842H7.862c-.447 0-.841-.295-.976-.728l-.877-3.284c-.1-.32-.342-.572-.657-.675-1.27-.419-4.602-2.04-4.602-3.954v-1.897c0-1.244.951-2.272 2.184-2.433a.974.974 0 00.613-.353l.56-.675c.257-.31.314-.745.146-1.112l-.516-1.126z" stroke="#000" stroke-width="1.5" stroke-linecap="round" stroke-linejoin="round"/></svg>
